icons/text-editor.svg

<?xml version="1.0" encoding="UTF-8" standalone="no"?>
<svg
   height="24"
   id="svg7384"
   version="1.1"
   width="24"
   sodipodi:docname="text-editor.svg"
   inkscape:version="1.1.2 (08b2f3d93c, 2022-04-05)"
   xmlns:inkscape="http://www.inkscape.org/namespaces/inkscape"
   xmlns:sodipodi="http://sodipodi.sourceforge.net/DTD/sodipodi-0.dtd"
   xmlns="http://www.w3.org/2000/svg"
   xmlns:svg="http://www.w3.org/2000/svg"
   xmlns:rdf="http://www.w3.org/1999/02/22-rdf-syntax-ns#"
   xmlns:cc="http://creativecommons.org/ns#"
   xmlns:dc="http://purl.org/dc/elements/1.1/">
  <path
     id="path122"
     style="fill:#808080;fill-opacity:1;stroke:none;stroke-width:2.5;stroke-linecap:butt;stroke-linejoin:round;stroke-miterlimit:4;stroke-dasharray:none;stroke-opacity:1"
     d="m 16.5,9 -6.875,6.875 -1.25,4.375 4.375,-1.25 6.875,-6.875 z m -6.25,7.5 1.875,1.875 -2.5,0.625 z"
     sodipodi:nodetypes="cccccccccc" />
  <path
     id="rect5345"
     style="fill:#808080;fill-opacity:1;stroke:none;stroke-width:2.5;stroke-linecap:butt;stroke-linejoin:round;stroke-miterlimit:4;stroke-dasharray:none;stroke-opacity:1"
     d="m 5.7871094,2 c -0.6769458,0.00559 -1.250602,0.048153 -1.7597656,0.3027344 -0.3394423,0.1697212 -0.6300054,0.4624336 -0.796875,0.8378906 -0.1668701,0.375457 -0.2304688,0.8177089 -0.2304688,1.359375 v 15 c 0,0.541666 0.063599,0.983918 0.2304688,1.359375 0.1668696,0.375457 0.4574326,0.668169 0.796875,0.837891 0.6788847,0.339442 1.4726572,0.302734 2.4726562,0.302734 h 10 c 0.999999,0 1.793771,0.03671 2.472656,-0.302734 0.339443,-0.169722 0.630005,-0.462434 0.796875,-0.837891 0.16687,-0.375457 0.230469,-0.817709 0.230469,-1.359375 v -6.335938 l -1,1 v 5.335938 c 0,0.458333 -0.0614,0.766083 -0.144531,0.953125 -0.08313,0.187042 -0.167568,0.269331 -0.328125,0.349609 -0.321114,0.160557 -1.027345,0.197266 -2.027344,0.197266 h -10 c -0.999999,0 -1.7062292,-0.03671 -2.0273438,-0.197266 -0.1605571,-0.08028 -0.2449946,-0.162567 -0.328125,-0.349609 -0.08313,-0.187042 -0.1445312,-0.494792 -0.1445312,-0.953125 v -15 c 0,-0.4583329 0.061401,-0.7660826 0.1445312,-0.953125 0.08313,-0.1870424 0.1675679,-0.2693308 0.328125,-0.3496094 0.3211143,-0.1605571 1.0273448,-0.1972656 2.0273438,-0.1972656 h 10 c 0.999999,0 1.70623,0.036708 2.027344,0.1972656 0.160557,0.080279 0.244995,0.162567 0.328125,0.3496094 0.08313,0.1870424 0.144531,0.4947921 0.144531,0.953125 v 5.585938 l 1,1 v -6.585938 c 0,-0.5416661 -0.0636,-0.983918 -0.230469,-1.359375 -0.16687,-0.375457 -0.457432,-0.6681694 -0.796875,-0.8378906 -0.678885,-0.3394424 -1.472657,-0.3027344 -2.472656,-0.3027344 h -10 c -0.2499997,0 -0.487242,-0.00186 -0.7128906,0 z"
     sodipodi:nodetypes="csssssssssssccssssssssssssssssccsssssc" />
  <path
     style="fill:#808080;fill-opacity:1;stroke:none;stroke-width:2.5;stroke-linecap:butt;stroke-linejoin:round;stroke-miterlimit:4;stroke-dasharray:none;stroke-opacity:1"
     d="m 6,10 v 1 h 4 v -1 z"
     id="path124" />
  <path
     style="fill:#808080;fill-opacity:1;stroke:none;stroke-width:2.5;stroke-linecap:butt;stroke-linejoin:round;stroke-miterlimit:4;stroke-dasharray:none;stroke-opacity:1"
     d="m 6,8 v 1 h 7 v -1 z"
     id="path120" />
  <path
     style="fill:#808080;fill-opacity:1;stroke:none;stroke-width:2.5;stroke-linecap:butt;stroke-linejoin:round;stroke-miterlimit:4;stroke-dasharray:none;stroke-opacity:1"
     d="m 6,6 v 1 h 11 v -1 z"
     id="path118" />
  <sodipodi:namedview
     id="namedview22"
     pagecolor="#ffffff"
     bordercolor="#666666"
     borderopacity="1.0"
     inkscape:pageshadow="2"
     inkscape:pageopacity="0.0"
     inkscape:pagecheckerboard="0"
     showgrid="false"
     inkscape:zoom="2"
     inkscape:cx="113.25"
     inkscape:cy="-31"
     inkscape:window-width="1920"
     inkscape:window-height="1043"
     inkscape:window-x="0"
     inkscape:window-y="0"
     inkscape:window-maximized="1"
     inkscape:current-layer="svg7384">
    <inkscape:grid
       type="xygrid"
       id="grid839" />
  </sodipodi:namedview>
  <metadata
     id="metadata20854">
    <rdf:RDF>
      <cc:Work
         rdf:about="">
        <dc:format>image/svg+xml</dc:format>
        <dc:type
           rdf:resource="http://purl.org/dc/dcmitype/StillImage" />
      </cc:Work>
    </rdf:RDF>
  </metadata>
  <defs
     id="defs7386">
    <linearGradient
       id="linearGradient5606"
       inkscape:swatch="solid">
      <stop
         id="stop5608"
         offset="0"
         style="stop-color:#000000;stop-opacity:1;" />
    </linearGradient>
    <linearGradient
       id="linearGradient4526"
       inkscape:swatch="solid">
      <stop
         id="stop4528"
         offset="0"
         style="stop-color:#ffffff;stop-opacity:1;" />
    </linearGradient>
    <linearGradient
       id="linearGradient3600-4"
       inkscape:swatch="gradient">
      <stop
         id="stop3602-7"
         offset="0"
         style="stop-color:#f4f4f4;stop-opacity:1" />
      <stop
         id="stop3604-6"
         offset="1"
         style="stop-color:#dbdbdb;stop-opacity:1" />
    </linearGradient>
  </defs>
</svg>

<?xml version="1.0" encoding="UTF-8" standalone="no"?>
<svg
   height="24"
   id="svg7384"
   version="1.1"
   width="24"
   sodipodi:docname="text-editor.svg"
   inkscape:version="1.1.2 (08b2f3d93c, 2022-04-05)"
   xmlns:inkscape="http://www.inkscape.org/namespaces/inkscape"
   xmlns:sodipodi="http://sodipodi.sourceforge.net/DTD/sodipodi-0.dtd"
   xmlns="http://www.w3.org/2000/svg"
   xmlns:svg="http://www.w3.org/2000/svg"
   xmlns:rdf="http://www.w3.org/1999/02/22-rdf-syntax-ns#"
   xmlns:cc="http://creativecommons.org/ns#"
   xmlns:dc="http://purl.org/dc/elements/1.1/">
  <path
     id="rect5345"
     style="fill:#808080;fill-opacity:1;stroke:none;stroke-width:2.5;stroke-linecap:butt;stroke-linejoin:round;stroke-miterlimit:4;stroke-dasharray:none;stroke-opacity:1"
     d="M 5.7871094 2 C 5.1101636 2.00559 4.5365074 2.048153 4.0273438 2.3027344 C 3.6879015 2.4724556 3.3973384 2.765168 3.2304688 3.140625 C 3.0635989 3.516082 3 3.9583339 3 4.5 L 3 19.5 C 3 20.041666 3.063599 20.483918 3.2304688 20.859375 C 3.3973384 21.234832 3.6879014 21.527544 4.0273438 21.697266 C 4.7062285 22.036708 5.500001 22 6.5 22 L 16.5 22 C 17.499999 22 18.293771 22.03671 18.972656 21.697266 C 19.312099 21.527544 19.602661 21.234832 19.769531 20.859375 C 19.936401 20.483918 20 20.041666 20 19.5 L 20 4.5 C 20 3.9583339 19.9364 3.516082 19.769531 3.140625 C 19.602661 2.765168 19.312099 2.4724556 18.972656 2.3027344 C 18.293771 1.963292 17.499999 2 16.5 2 L 6.5 2 C 6.2500003 2 6.012758 1.99814 5.7871094 2 z M 6.5 3 L 16.5 3 C 17.499999 3 18.20623 3.036708 18.527344 3.1972656 C 18.687901 3.2775446 18.772339 3.3598326 18.855469 3.546875 C 18.938599 3.7339174 19 4.0416671 19 4.5 L 19 19.5 C 19 19.958333 18.9386 20.266083 18.855469 20.453125 C 18.772339 20.640167 18.687901 20.722456 18.527344 20.802734 C 18.20623 20.963291 17.499999 21 16.5 21 L 6.5 21 C 5.500001 21 4.7937708 20.96329 4.4726562 20.802734 C 4.3120991 20.722454 4.2276615 20.640167 4.1445312 20.453125 C 4.0614013 20.266083 4 19.958333 4 19.5 L 4 4.5 C 4 4.0416671 4.061401 3.7339174 4.1445312 3.546875 C 4.2276612 3.3598326 4.3120991 3.2775442 4.4726562 3.1972656 C 4.7937705 3.0367085 5.500001 3 6.5 3 z M 6 5 L 6 6 L 17 6 L 17 5 L 6 5 z M 6 7 L 6 8 L 13 8 L 13 7 L 6 7 z M 14.5 8 L 7.625 14.875 L 6.375 19.25 L 10.75 18 L 17.625 11.125 L 14.5 8 z M 6 9 L 6 10 L 10 10 L 10 9 L 6 9 z M 8.25 15.5 L 10.125 17.375 L 7.625 18 L 8.25 15.5 z " />
  <sodipodi:namedview
     id="namedview22"
     pagecolor="#ffffff"
     bordercolor="#666666"
     borderopacity="1.0"
     inkscape:pageshadow="2"
     inkscape:pageopacity="0.0"
     inkscape:pagecheckerboard="0"
     showgrid="false"
     inkscape:zoom="16"
     inkscape:cx="17.71875"
     inkscape:cy="9.875"
     inkscape:window-width="1920"
     inkscape:window-height="1043"
     inkscape:window-x="1920"
     inkscape:window-y="0"
     inkscape:window-maximized="1"
     inkscape:current-layer="svg7384">
    <inkscape:grid
       type="xygrid"
       id="grid839" />
  </sodipodi:namedview>
  <metadata
     id="metadata20854">
    <rdf:RDF>
      <cc:Work
         rdf:about="">
        <dc:format>image/svg+xml</dc:format>
        <dc:type
           rdf:resource="http://purl.org/dc/dcmitype/StillImage" />
      </cc:Work>
    </rdf:RDF>
  </metadata>
  <defs
     id="defs7386">
    <linearGradient
       id="linearGradient5606"
       inkscape:swatch="solid">
      <stop
         id="stop5608"
         offset="0"
         style="stop-color:#000000;stop-opacity:1;" />
    </linearGradient>
    <linearGradient
       id="linearGradient4526"
       inkscape:swatch="solid">
      <stop
         id="stop4528"
         offset="0"
         style="stop-color:#ffffff;stop-opacity:1;" />
    </linearGradient>
    <linearGradient
       id="linearGradient3600-4"
       inkscape:swatch="gradient">
      <stop
         id="stop3602-7"
         offset="0"
         style="stop-color:#f4f4f4;stop-opacity:1" />
      <stop
         id="stop3604-6"
         offset="1"
         style="stop-color:#dbdbdb;stop-opacity:1" />
    </linearGradient>
  </defs>
</svg>
